patrocinadores/deiser.svg

<?xml version="1.0" encoding="UTF-8" standalone="no"?>
<svg width="516px" height="146px" viewBox="0 0 516 146" version="1.1" xmlns="http://www.w3.org/2000/svg" xmlns:xlink="http://www.w3.org/1999/xlink">
    <!-- Generator: Sketch 40 (33762) - http://www.bohemiancoding.com/sketch -->
    <title>DEISER LOGO RGB</title>
    <desc>Created with Sketch.</desc>
    <defs>
        <polygon id="path-1" points="61.463 0.438 0 0.438 0 34.5383 0 68.6386 61.463 68.6386 61.463 0.438"></polygon>
        <polygon id="path-3" points="0.8066 52 90.9506 52 90.9506 0.2712 0.8066 0.2712 0.8066 52"></polygon>
        <polygon id="path-5" points="61.9934 0.438 0.5304 0.438 0.5304 106.2368 61.9934 106.2368 61.9934 0.438"></polygon>
    </defs>
    <g id="Symbols" stroke="none" stroke-width="1" fill="none" fill-rule="evenodd">
        <g id="DEISER-LOGO-RGB">
            <g id="Group-13">
                <g id="Page-1">
                    <path d="M475.9268,68.5238 L485.2538,68.5238 C491.4348,68.5238 494.5818,64.9828 494.5818,58.8108 C494.5818,52.5368 491.4348,49.0048 485.2538,49.0048 L475.9268,49.0048 L475.9268,68.5238 Z M487.5868,36.4568 C503.0958,36.4568 511.5078,45.4628 511.5078,58.8108 C511.5078,68.3198 506.9488,75.8108 498.8388,79.0458 L515.3598,108.3798 C515.3598,108.3798 512.0138,109.2908 506.1348,109.2908 C500.4608,109.2908 497.2168,108.3798 497.2168,108.3798 L482.2098,81.0628 L475.9268,81.0628 L475.9268,108.3798 C475.9268,108.3798 472.8878,109.2908 467.9188,109.2908 C462.4448,109.2908 459.7068,108.3798 459.7068,108.3798 L459.7068,36.4568 L487.5868,36.4568 Z M447.5408,36.4568 C448.0468,37.9718 448.5538,40.0998 448.5538,42.3218 C448.5538,44.7568 448.1488,47.0808 447.5408,48.7998 L419.3588,48.7998 L419.3588,66.3948 L442.4698,66.3948 C442.9768,68.1148 443.4828,69.9368 443.4828,72.3718 C443.4828,74.8998 443.0788,76.8148 442.4698,78.6368 L419.3588,78.6368 L419.3588,96.9478 L448.5538,96.9478 C449.1618,98.5648 449.5668,100.7958 449.5668,103.0168 C449.5668,105.2388 449.2648,107.4688 448.5538,109.2908 L403.1388,109.2908 L403.1388,36.4568 L447.5408,36.4568 Z M368.5718,35.2478 C381.7468,35.2478 389.8568,38.6878 389.8568,38.6878 C389.8568,42.9348 388.5408,47.5828 385.8038,50.6218 C385.8038,50.6218 379.1118,48.5958 371.1038,48.5958 C362.3858,48.5958 358.2308,51.2258 358.2308,56.3848 C358.2308,61.9528 366.6428,63.2628 375.1618,66.3028 C384.0798,69.5368 393.0028,74.5938 393.0028,87.8478 C393.0028,102.5148 383.9778,110.4998 365.6298,110.4998 C350.7298,110.4998 341.4028,105.5448 341.4028,105.5448 C341.4028,101.2978 342.9218,96.4458 345.2548,93.2018 C345.2548,93.2018 354.3778,96.3428 364.5138,96.3428 C372.5258,96.3428 376.1748,93.7128 376.1748,88.5538 C376.1748,83.8978 371.6108,81.8808 365.7318,79.8538 C355.5958,76.5178 341.8068,73.4778 341.8068,57.4998 C341.8068,44.2458 350.2228,35.2478 368.5718,35.2478 L368.5718,35.2478 Z M314.5358,37.3678 C314.5358,37.3678 317.5798,36.4568 322.5428,36.4568 C327.6138,36.4568 330.7548,37.3678 330.7548,37.3678 L330.7548,108.3798 C330.7548,108.3798 327.5118,109.2908 322.6458,109.2908 C317.2728,109.2908 314.5358,108.3798 314.5358,108.3798 L314.5358,37.3678 Z M302.4708,36.4568 C302.9778,37.9718 303.4838,40.0998 303.4838,42.3218 C303.4838,44.7568 303.0798,47.0808 302.4708,48.7998 L274.2888,48.7998 L274.2888,66.3948 L297.4008,66.3948 C297.9068,68.1148 298.4138,69.9368 298.4138,72.3718 C298.4138,74.8998 298.0098,76.8148 297.4008,78.6368 L274.2888,78.6368 L274.2888,96.9478 L303.4838,96.9478 C304.0928,98.5648 304.4968,100.7958 304.4968,103.0168 C304.4968,105.2388 304.1948,107.4688 303.4838,109.2908 L258.0698,109.2908 L258.0698,36.4568 L302.4708,36.4568 Z M214.8858,96.6408 C224.0088,96.6408 229.6828,92.3928 229.6828,72.8738 C229.6828,53.1498 224.0088,49.0978 214.8858,49.0978 L206.6738,49.0978 L206.6738,96.6408 L214.8858,96.6408 Z M215.4948,36.4568 C235.3618,36.4568 246.8178,46.6718 246.8178,72.8738 C246.8178,99.0758 235.3618,109.2908 215.4948,109.2908 L190.4538,109.2908 L190.4538,36.4568 L215.4948,36.4568 Z" id="Fill-1" fill="#35297F"></path>
                    <g id="Group-5" transform="translate(0.000000, 0.562000)">
                        <mask id="mask-2" fill="white">
                            <use xlink:href="#path-1"></use>
                        </mask>
                        <g id="Clip-4"></g>
                        <polygon id="Fill-3" fill="#DF0084" mask="url(#mask-2)" points="0 35.7076 0 68.6386 61.463 33.3676 61.463 0.4376"></polygon>
                    </g>
                    <g id="Group-8" transform="translate(34.000000, 93.562000)">
                        <mask id="mask-4" fill="white">
                            <use xlink:href="#path-3"></use>
                        </mask>
                        <g id="Clip-7"></g>
                        <polygon id="Fill-6" fill="#5D1B7F" mask="url(#mask-4)" points="90.9506 16.7352 62.2616 0.2712 0.8066 35.5342 29.4956 52.0002"></polygon>
                    </g>
                    <g id="Group-11" transform="translate(65.000000, 0.562000)">
                        <mask id="mask-6" fill="white">
                            <use xlink:href="#path-5"></use>
                        </mask>
                        <g id="Clip-10"></g>
                        <polygon id="Fill-9" fill="#35297F" mask="url(#mask-6)" points="61.9934 106.2368 61.9934 35.7078 0.5304 0.4378 0.5304 33.3678 33.2944 52.1678 33.2944 89.7668"></polygon>
                    </g>
                    <polygon id="Fill-12" fill="#B3007F" points="2.0421 72.6984 28.6991 87.9984 28.6991 57.3974"></polygon>
                    <polygon id="Fill-14" fill="#870C80" points="31.8245 126.6422 60.0705 110.3222 60.0595 72.8082 31.8245 58.5352"></polygon>
                </g>
            </g>
        </g>
    </g>
</svg>

<svg height="146" viewBox="0 0 516 146" width="516" xmlns="http://www.w3.org/2000/svg" xmlns:xlink="http://www.w3.org/1999/xlink"><mask id="a" fill="#fff"><path d="m61.463.438h-61.463v34.1003 34.1003h61.463z" fill="none"/></mask><mask id="b" fill="#fff"><path d="m.8066 52h90.144v-51.7288h-90.144z" fill="none"/></mask><mask id="c" fill="#fff"><path d="m61.9934.438h-61.463v105.7988h61.463z" fill="none"/></mask><g fill="none" fill-rule="evenodd"><path d="m475.9268 68.5238h9.327c6.181 0 9.328-3.541 9.328-9.713 0-6.274-3.147-9.806-9.328-9.806h-9.327zm11.66-32.067c15.509 0 23.921 9.006 23.921 22.354 0 9.509-4.559 17-12.669 20.235l16.521 29.334s-3.346.911-9.225.911c-5.674 0-8.918-.911-8.918-.911l-15.007-27.317h-6.283v27.317s-3.039.911-8.008.911c-5.474 0-8.212-.911-8.212-.911v-71.923zm-40.046 0c.506 1.515 1.013 3.643 1.013 5.865 0 2.435-.405 4.759-1.013 6.478h-28.182v17.595h23.111c.507 1.72 1.013 3.542 1.013 5.977 0 2.528-.404 4.443-1.013 6.265h-23.111v18.311h29.195c.608 1.617 1.013 3.848 1.013 6.069 0 2.222-.302 4.452-1.013 6.274h-45.415v-72.834zm-78.969-1.209c13.175 0 21.285 3.44 21.285 3.44 0 4.247-1.316 8.895-4.053 11.934 0 0-6.692-2.026-14.7-2.026-8.718 0-12.873 2.63-12.873 7.789 0 5.568 8.412 6.878 16.931 9.918 8.918 3.234 17.841 8.291 17.841 21.545 0 14.667-9.025 22.652-27.373 22.652-14.9 0-24.227-4.955-24.227-4.955 0-4.247 1.519-9.099 3.852-12.343 0 0 9.123 3.141 19.259 3.141 8.012 0 11.661-2.63 11.661-7.789 0-4.656-4.564-6.673-10.443-8.7-10.136-3.336-23.925-6.376-23.925-22.354 0-13.254 8.416-22.252 26.765-22.252zm-54.036 2.12s3.044-.911 8.007-.911c5.071 0 8.212.911 8.212.911v71.012s-3.243.911-8.109.911c-5.373 0-8.11-.911-8.11-.911zm-12.065-.911c.507 1.515 1.013 3.643 1.013 5.865 0 2.435-.404 4.759-1.013 6.478h-28.182v17.595h23.112c.506 1.72 1.013 3.542 1.013 5.977 0 2.528-.404 4.443-1.013 6.265h-23.112v18.311h29.195c.609 1.617 1.013 3.848 1.013 6.069 0 2.222-.302 4.452-1.013 6.274h-45.414v-72.834zm-87.585 60.184c9.123 0 14.797-4.248 14.797-23.767 0-19.724-5.674-23.776-14.797-23.776h-8.212v47.543zm.609-60.184c19.867 0 31.323 10.215 31.323 36.417s-11.456 36.417-31.323 36.417h-25.041v-72.834z" fill="#35297f"/><path d="m0 35.7076v32.931l61.463-35.271v-32.93z" fill="#df0084" mask="url(#a)" transform="translate(0 .562)"/><path d="m90.9506 16.7352-28.689-16.464-61.455 35.263 28.689 16.466z" fill="#5d1b7f" mask="url(#b)" transform="translate(34 93.562)"/><path d="m61.9934 106.2368v-70.529l-61.463-35.27v32.93l32.764 18.8v37.599z" fill="#35297f" mask="url(#c)" transform="translate(65 .562)"/><path d="m2.0421 72.6984 26.657 15.3v-30.601z" fill="#b3007f"/><path d="m31.8245 126.6422 28.246-16.32-.011-37.514-28.235-14.273z" fill="#870c80"/></g></svg>
